X:1
T:Gethsemane (Ouseley), 77.77.77
T:Gethsemane (Ouseley), 77.77.77
T:Frederick Arthur Gore Ouseley, 1869
T:Public Domain Courtesy of the Cyber Hymnal™
C:Frederick Arthur Gore Ouseley, 1869
Z:Public Domain
Z:Courtesy of the Cyber Hymnal™
%%score ( 1 2 ) ( 3 4 )
L:1/8
Q:1/4=107
M:none
K:G
V:1 treble 
V:2 treble 
V:3 bass 
V:4 bass 
V:1
 E2 [B,E]2 [B,E]2 [B,E]2 | [CE]3 [CE] [B,E]4 | [CF]2 [B,F]2 [B,F]2 [B,E]2 x | [CE]2 [CF]2 [B,G]4 | %4
 G2 [DG]2 [DG]2 [DG]2 | [EG]3 [EG] [DG]4 | [DA]2 [DA]2 [DA]2 [DG]2 | [EG]2 [EA]2 [^DB]4 | %8
 [FB]2 [FB]2 [EB]2 [=FB]2 | [Ec]2 [EB]2 [EA]4 | [EG]2 [^DF]2 E2 [CE]2 | [B,E]2 [B,^D]2 [B,E]4 |] %12
V:2
 E2 x6 | x8 | x9 | x8 | G2 x6 | x8 | x8 | x8 | x8 | x8 | x4 E2 x2 | x8 |] %12
V:3
 E,2 [E,G,]2 [D,G,]2 [D,G,]2 | [C,G,]2 [A,,A,]2 [E,G,]4 | [E,A,]2 [^D,A,]2 G,2 (z =D,) x | %3
 G,2 [A,,A,]2 [G,,D,]4 | G,2 [G,B,]2 [F,B,]2 [F,B,]2 | [E,B,]2 [C,C]2 [G,B,]4 | %6
 [G,C]2 [F,C]2 [G,B,]2 [G,B,]2 | (A,G,) (F,E,) [B,,F,]4 | [B,^D]2 [A,D]2 [G,E]2 [G,=D]2 | %9
 C2 [E,D]2 [A,,C]4 | B,3 (z [C,G,]2) [A,,F,]2 | (F,E,) [B,,F,]2 [E,G,]4 |] %12
V:4
 E,2 x6 | x8 | x4 E,3 G,2 | (C,B,,) x6 | G,2 x6 | x8 | x8 | C,2 C,2 x4 | x8 | (C,D,) x6 | %10
 B,,2 (B,,2 A,) x3 | B,,2 x6 |] %12

